X:6319
T:Strop the Razor
O:england
R:jig
D:Conal O'Grada: The Top of Coom
M:6/8
L:1/8
K:G
BGG AGG|BGG AGF|DGG GFG|DGG G2A|
BGG AGG|BGG AGF|D2E F2G|ADE FGA:|
|:dBB cAA|dBB cAF|DGG GFG|DGG G2B|
dBB cAA|dBB cAF|D2E F2G|ADE FGA:|
|:~B3 cBc|ded dBd|~g3 gfd|gag gdc|
~B3 cBc|ded d2e|~f3 fde|fag fdc:|
